X:1
T:VI. Were every thought an eye,
T:VI. Were every thought an eye,
T:CANTUS.
T:John Dowland
C:John Dowland
L:1/8
M:3/2
K:Bb
V:1 treble 
V:1
|: =B2 | c3 d e2 d4 c2 |"^(1)" B12 G2 | A4 B4 G2 c2 |"^(1)" =B12 c2 | d4 e2 c4 d2 | %6
w: Were|eve- * y thought an|eye, and|all those eyes could|see, Her|sub- till wiles their|
w: Her|fires * do in- ward|burne, They|make no out- ward|show. And|her de- lights a-|
 B2 B2 A2 B3 c d2 | e4 d2 c4 =B2 | c12 :: c2 | d3 e f4 e2 c2 |"^(2)" B8 z2 B2 | e4 d2 c4 =B2 | %13
w: sights would be- guile, and *|mocke their je- lou-|sie.|De-|sire lives * in her|heart, Di-|a- na in her|
w: mid the dark shades, which *|none dis- co- ver,|grow.|The|flowers growth * is un-|seene, yet|e- very day it|
"^(1)" c12 d2 | e4 c2 d2 f2 =e2 | f4 c2 d4 c2 | B6 A6 | G12 :: d3 e f4 d2 B4 c2 d4 e2 f2 | %19
w: eyes, T'were|vaine to wish wo- men|true, t'is well, if|they prove|wise.|Such a Love de- serves more grace, Then a|
w: growes. So|where her fan- cy is|set but how none|knowes. *|||
 e3 f g4 e2 c2 | e4 d2 c3 B A2 | G3 A B2 c4 B2 | e6- e3 d c2 | d3 =e f4- ffe>d | !fermata!c12 :| %25
w: tru- er heart that hath|no con- ceit, To make|use both of time and|place * When a|wit hath need * of all his|sleight.|
w: ||||||

